src/images/single-assets/LEND.svg

<svg width="113" height="113" viewBox="0 0 113 113" fill="none" xmlns="http://www.w3.org/2000/svg">
<rect x="0.5" y="0.5" width="112" height="112" rx="56" fill="#9E77ED"/>
<g clip-path="url(#clip0_1124_12869)">
<path fill-rule="evenodd" clip-rule="evenodd" d="M35.7734 24.3961L52.3359 14.5028L68.9436 24.3961H68.9436L85.5512 34.2894L68.9436 44.1361L52.3359 34.2894H52.3359L35.7734 24.3961ZM77.2266 88.6097L93.8342 78.7632V58.9763L77.2266 68.8697V88.6097ZM44.0566 68.869V88.6089L60.6621 98.5011V98.5024L60.6632 98.5017L60.6643 98.5024V98.5011L77.2246 88.6089V68.869L60.6632 78.7618L44.0566 68.869ZM85.5549 54.0295L68.9473 63.9228V44.1361L85.5549 34.2894V54.0295ZM19.168 44.1366V63.9215V63.9232V83.7081L35.7756 93.5548V73.8166V73.8149V54.0299L19.168 44.1366ZM52.3381 44.1361L35.7756 34.2894L19.168 44.1361L35.7756 54.0295L52.3381 44.1361Z" fill="#42307D"/>
</g>
<defs>
<clipPath id="clip0_1124_12869">
<rect width="84" height="84" fill="white" transform="translate(14.5 14.5013)"/>
</clipPath>
</defs>
</svg>

<svg xmlns="http://www.w3.org/2000/svg" width="113" height="113" fill="none"><rect width="112" height="112" x=".5" y=".5" fill="#9E77ED" rx="56"/><g clip-path="url(#a)"><path fill="#42307D" fill-rule="evenodd" d="m35.773 24.396 16.563-9.893 16.608 9.893L85.55 34.29l-16.607 9.847-16.608-9.847zM77.227 88.61l16.607-9.847V58.976L77.227 68.87zm-33.17-19.741v19.74L60.662 98.5v.001h.002l16.56-9.893v-19.74l-16.56 9.893zm41.498-14.84-16.608 9.894V44.136l16.608-9.847zm-66.387-9.892v39.571l16.608 9.847V54.03zm33.17 0-16.562-9.848-16.608 9.847 16.608 9.893z" clip-rule="evenodd"/></g><defs><clipPath id="a"><path fill="#fff" d="M14.5 14.501h84v84h-84z"/></clipPath></defs></svg>
